actions/24/gtk-select-font.svg

<?xml version="1.0" encoding="UTF-8" standalone="no"?>
<svg
   width="24"
   height="24"
   viewBox="0 0 24 24"
   version="1.1"
   id="svg7"
   sodipodi:docname="gtk-select-font.svg"
   inkscape:version="1.1.2 (0a00cf5339, 2022-02-04)"
   xmlns:inkscape="http://www.inkscape.org/namespaces/inkscape"
   xmlns:sodipodi="http://sodipodi.sourceforge.net/DTD/sodipodi-0.dtd"
   xmlns="http://www.w3.org/2000/svg"
   xmlns:svg="http://www.w3.org/2000/svg">
  <sodipodi:namedview
     id="namedview9"
     pagecolor="#000000"
     bordercolor="#666666"
     borderopacity="1.0"
     inkscape:pageshadow="2"
     inkscape:pageopacity="0"
     inkscape:pagecheckerboard="0"
     showgrid="false"
     inkscape:zoom="28.416667"
     inkscape:cx="11.982405"
     inkscape:cy="11.964809"
     inkscape:window-width="1596"
     inkscape:window-height="967"
     inkscape:window-x="0"
     inkscape:window-y="29"
     inkscape:window-maximized="1"
     inkscape:current-layer="svg7" />
  <defs
     id="defs3">
    <style
       id="current-color-scheme"
       type="text/css">
   .ColorScheme-Text { color:#eeeeec; } .ColorScheme-Highlight { color:#367bf0; } .ColorScheme-NeutralText { color:#ffcc44; } .ColorScheme-PositiveText { color:#3db47e; } .ColorScheme-NegativeText { color:#dd4747; }
  </style>
  </defs>
  <path
     style="fill:currentColor"
     class="ColorScheme-Text"
     d="M 7,1 2,15 h 2.5 l 1.0625,-3 h 4.875 L 11.5,15 h 2.78125 L 9,1 Z m 7,0 c -0.552285,0 -1,0.4477153 -1,1 0,0.5522847 0.447715,1 1,1 0.552285,0 1,-0.4477153 1,-1 0,-0.5522847 -0.447715,-1 -1,-1 z m 0,3 c -0.552285,0 -1,0.4477153 -1,1 0,0.5522847 0.447715,1 1,1 0.552285,0 1,-0.4477153 1,-1 C 15,4.4477153 14.552285,4 14,4 Z M 7.6906153,5.8839562 8.3146493,5.8989979 9.5021096,9.2917417 9.1339158,10 v 0 H 6.8817593 v 0 L 6.4840761,9.3312112 Z M 14,7 c -0.552285,0 -1,0.4477153 -1,1 0,0.5522847 0.447715,1 1,1 0.552285,0 1,-0.4477153 1,-1 0,-0.5522847 -0.447715,-1 -1,-1 z"
     transform="translate(4,4)"
     id="path5"
     sodipodi:nodetypes="cccccccccssssssssssccccccccccsssss" />
</svg>

<svg xmlns="http://www.w3.org/2000/svg" width="24" height="24" viewBox="0 0 24 24">
 <defs>
  <style id="current-color-scheme" type="text/css">
   .ColorScheme-Text { color:#eeeeec; } .ColorScheme-Highlight { color:#367bf0; } .ColorScheme-NeutralText { color:#ffcc44; } .ColorScheme-PositiveText { color:#3db47e; } .ColorScheme-NegativeText { color:#dd4747; }
  </style>
 </defs>
 <path style="fill:currentColor" class="ColorScheme-Text" d="M 7 1 L 2 15 L 4.5 15 L 5.5625 12 L 10.4375 12 L 11.5 15 L 14.28125 15 L 9 1 L 7 1 z M 14 1 A 1 1 0 0 0 13 2 A 1 1 0 0 0 14 3 A 1 1 0 0 0 15 2 A 1 1 0 0 0 14 1 z M 14 4 A 1 1 0 0 0 13 5 A 1 1 0 0 0 14 6 A 1 1 0 0 0 15 5 A 1 1 0 0 0 14 4 z M 8 5 L 9.75 10 L 6.25 10 L 8 5 z M 14 7 A 1 1 0 0 0 13 8 A 1 1 0 0 0 14 9 A 1 1 0 0 0 15 8 A 1 1 0 0 0 14 7 z" transform="translate(4 4)"/>
</svg>
